setcps 1


--drums
d1 $ sound "[[bd*2],[~ sd],[hh/2]]" # gain 1.5
d2 $ sound "cp" # delay 0.8 # delaytime (1/6) # delayfeedback 0.6 # lock 1 # gain 0.8

--bass
d3 $ note "c2!2 g2 as2" # sound "superreese"

--1234
d4 $ every 4 (hurry 2) $ sound "numbers:1 numbers:2 numbers:3 numbers:4" # pan "0 0.5 1 0.5"

--synth
d5 $ iter 8 $ n (run 4)  # sound "arpy"  |-12
